svg/fluentui-system-icons/ic_fluent_bug_20_regular.svg

<svg width="20" height="20" viewBox="0 0 20 20" fill="none" xmlns="http://www.w3.org/2000/svg">
<path d="M9 2.5C9 2.22386 8.77614 2 8.5 2C8.22386 2 8 2.22386 8 2.5V3C8 3.39716 8.11577 3.76729 8.3154 4.07847C6.98842 4.38821 6 5.57867 6 7H5.5C4.67157 7 4 6.32843 4 5.5V3.5C4 3.22386 3.77614 3 3.5 3C3.22386 3 3 3.22386 3 3.5V5.5C3 6.88071 4.11929 8 5.5 8H6V9.5H2.5C2.22386 9.5 2 9.72386 2 10C2 10.2761 2.22386 10.5 2.5 10.5H6V12H5.5C4.11929 12 3 13.1193 3 14.5V16.5C3 16.7761 3.22386 17 3.5 17C3.77614 17 4 16.7761 4 16.5V14.5C4 13.6716 4.67157 13 5.5 13H6C6 15.2091 7.79086 17 10 17C12.2091 17 14 15.2091 14 13H14.5C15.3284 13 16 13.6716 16 14.5V16.5C16 16.7761 16.2239 17 16.5 17C16.7761 17 17 16.7761 17 16.5V14.5C17 13.1193 15.8807 12 14.5 12H14V10.5H17.5C17.7761 10.5 18 10.2761 18 10C18 9.72386 17.7761 9.5 17.5 9.5H14V8H14.5C15.8807 8 17 6.88071 17 5.5V3.5C17 3.22386 16.7761 3 16.5 3C16.2239 3 16 3.22386 16 3.5V5.5C16 6.32843 15.3284 7 14.5 7H14C14 5.57867 13.0116 4.38821 11.6846 4.07847C11.8842 3.76729 12 3.39716 12 3V2.5C12 2.22386 11.7761 2 11.5 2C11.2239 2 11 2.22386 11 2.5V3C11 3.55228 10.5523 4 10 4C9.44772 4 9 3.55228 9 3V2.5ZM13 7V13C13 14.6569 11.6569 16 10 16C8.34315 16 7 14.6569 7 13V7C7 5.89543 7.89543 5 9 5H11C12.1046 5 13 5.89543 13 7Z" fill="#212121"/>
</svg>

<svg xmlns="http://www.w3.org/2000/svg" width="20" height="20"><path d="M9 2.5a.5.5 0 0 0-1 0V3c0 .397.116.767.315 1.078A3.001 3.001 0 0 0 6 7h-.5A1.5 1.5 0 0 1 4 5.5v-2a.5.5 0 0 0-1 0v2A2.5 2.5 0 0 0 5.5 8H6v1.5H2.5a.5.5 0 0 0 0 1H6V12h-.5A2.5 2.5 0 0 0 3 14.5v2a.5.5 0 0 0 1 0v-2A1.5 1.5 0 0 1 5.5 13H6a4 4 0 0 0 8 0h.5a1.5 1.5 0 0 1 1.5 1.5v2a.5.5 0 0 0 1 0v-2a2.5 2.5 0 0 0-2.5-2.5H14v-1.5h3.5a.5.5 0 0 0 0-1H14V8h.5A2.5 2.5 0 0 0 17 5.5v-2a.5.5 0 0 0-1 0v2A1.5 1.5 0 0 1 14.5 7H14a3.001 3.001 0 0 0-2.315-2.922c.2-.31.315-.68.315-1.078v-.5a.5.5 0 0 0-1 0V3a1 1 0 1 1-2 0v-.5ZM13 7v6a3 3 0 1 1-6 0V7a2 2 0 0 1 2-2h2a2 2 0 0 1 2 2Z"/></svg>
